X:1
T:Shout Forth the Tidings
T:Shout Forth the Tidings
T:Adam Geibel, arranged from Gounod
T:Adam Geibel, ca. 1903
T:Public Domain Courtesy of the Cyber Hymnal™
T:Public Domain Courtesy of the Cyber Hymnal™
C:Adam Geibel, arranged from Gounod
Z:Public Domain
Z:Courtesy of the Cyber Hymnal™
%%score ( 1 2 ) ( 3 4 )
L:1/8
Q:1/4=115
M:4/4
K:F
V:1 treble 
V:2 treble 
V:3 bass 
V:4 bass 
V:1
 [Fc]4 [Gc]3 [Gc] | [Af]4 [FB]3 [FB] | [EB]2 [FA]2 [EG]2 F2 | c3 z B [FA]4 | [FA]4 [EA]3 [EA] | %5
w: 1.~Shout forth the|tid- ings, The|Lord of light is|ris’n to- day,|* Shout forth|
w: 2.~Shout forth the|tid- ings, Pro-|claim the news o’er|land and sea;|* Shout forth|
 [Dd]4 G2 [FA]2 | [EB]2 [FA]2 [CG]2 [CF]2 | [Fd]3 [Ec] [Ec]3 z |:"^Semi Chorus" [CF]6 (E>G) x2 | %9
w: the tid- ings,|For death hath lost|his might- y|sway. Where, *|
w: the tid- ings,|For Christ hath won|the vic- to-|ry. * *|
 [CF]6 (F>G) x2 | [FA]2 (A>B) [Ac]2 [Ad]2 | [EG]4- [EG]>[EB] [EG]>[EA] | [CF]6 (E>G) x2 | %13
w: say where, *|oh death, * where is|thy * sting? And where,|oh grave, *|
w: ||||
 [CF]6 (F>G) x2 | [FA]2 [FA]2 [Af]2 [Ge]2 | [Fd]3 [Ge] [Ec]3 z"^Play 2 times" :| x8 |: %17
w: say where, *|Oh where is now|thy vic- to-||
w: ||||
 [CF]4 C2 [CF]>[CG] | [FA]4 [CF] z [FA]>[FB] | [Fc]2 [Fc]2 [Fd]3 [Fc] | [Fc]4 [FA]2 z2 | %21
w: ry? Je- sus hath|a- ris- en, He|hath burst His three|days pri-|
w: ||||
 [Ec]4 [FA]2 F>[FA] | [Ec]4 [FA]2 F>[FA] | [EG]2 ([Ec]>[Fd]) [Ec]2 [D=B]2 | [Ec]2 z6 | %25
w: son; Praise Him, praise|the Sav- ior, Who|hath con- * quered death|and|
w: ||||
 [Ed]4 [Fc]2 [FA]>F | [Ec]2 [EB]2 [FA]4 | [Fd]3 [Fc] [Fd][Fc][EB][FA] | [GB]2 [FA]2 [EG]4 | %29
w: hell. Praise thou, praise|the might- y|God, Let your prais- es ev-|er loud- ly|
w: ||||
 [CF]3 [A,C] [B,D][CE][DF][EG] | [FA][EG] ([FA][GB]) [Ac]2 [Fd]>[Fd] |1 [CF]2 [FA]2 [EG]3 F | %32
w: swell, Praise on earth, and praise|ye Heav- en- * ly host, Fa-|ther, Son, and Ho-|
w: |||
 F x7 :|2 [Fc]2 [Af]2 [Ge]3 [Af] || [Af]6 z2 |] %35
w: ly|Ghost. Son, and Ho-|ly|
w: |||
V:2
 x8 | x8 | x6 F2 | F2 E2 x5 | x8 | x4 G2 x2 | x8 | x8 |: x6 C2 x2 | x6 C2 x2 | x2 F2 x4 | x8 | %12
 x6 C2 x2 | x6 C2 x2 | x8 | x8 :| x8 |: x4 C2 x2 | x8 | x8 | x8 | x6 F3/2 x/ | x6 F3/2 x/ | x8 | %24
 x8 | x15/2 F/ | x8 | x8 | x8 | x8 | x8 |1 x7 F | F (.f/.f/ .a.f .c.f.A.c) :|2 x8 || x8 |] %35
V:3
 [F,A,]4 [E,C]3 [E,C] | [D,D]4 [D,B,]3 [D,B,] | [C,G,]2 C2 [B,C]2 [A,C]2 | [G,D]2 [C,C]2 C4 x | %4
w: ~ ~ ~|~ ~ ~|~ ~ ~ ~|~ ~ ~|
 [D,D]4 [C,A,]3 [C,A,] | [B,,F,]4 [B,D]2 [A,C]2 | [G,C]2 [F,C]2 [E,C]2 [D,A,]2 | %7
w: ~ ~ ~|~ ~ ~|~ ~ ~ ~|
 [G,=B,]3 [C,C] [C,C]3 z |: z2 A,2 x6 | z2 A,2 x6 | C2 [F,C]2 ([C,F]2 F2) | z2 B,>D B,>C x2 | %12
w: ~ ~ ~|~||* Say, where, *|oh death, ~ is|
 (z2 A,2) x6 | z2 [A,C]2 x6 | [F,C]2 [F,C]2 [D,C]2 [D,C]2 | %15
w: ||now thy sting? ~|
 [G,=B,]3 [G,B,] [C,C]3 z"^Play 2 times" :| x8 |: [F,A,]4 [F,A,]2 [F,A,]>[F,B,] | %18
w: ~ ~ and||where, oh grave, ~|
 [F,C]4 [F,A,] z F,>[F,G,] | [F,A,]2 [F,A,]2 [F,B,]3 [F,A,] | [F,A,]4 [F,C]2 z2 | %21
w: ~ ~ ~ ~|~ ~ ~ ~|~ ~|
 [C,C]4 [F,C]2 [A,C]>[F,C] | [C,C]4 [F,C]2 [A,C]>[F,C] | [G,C]2 G,2 G,2 G,2 | [C,G,]2 C>(C C2) C2 | %25
w: ~ ~ ~ ~|~ ~ ~ ~|~ ~ ~ ~|~ ~ ~ * ~|
 [C,B,]4 [C,A,]2 [C,C]>[C,A,] | [C,G,]2 [C,C]2 [F,C]4 | B,3 [A,C] B,[A,C][G,C][F,C] | %28
w: ~ ~ ~ ~|~ ~ ~|praise the Sav- ior * *|
 [E,C]2 [E,C]2 [C,C]4 | [F,A,]3 [A,,C,] [B,,D,][C,E,][D,F,][E,G,] | %30
w: ||
 [F,A,][E,G,] ([F,A,][G,B,]) [A,C]2 [B,,B,]>[B,,B,] |1 [C,A,]2 [C,C]2 [C,B,]3 [F,A,] | %32
w: ||
 ([F,A,] .F/.F/ .A.F .C.F.A,.C) :|2 [C,A,]2 [C,C]2 [C,C]3 [F,C] || [F,C]6 z2 |] %35
w: |||
V:4
 x8 | x8 | x2 C2 x4 | x4 (F,2 E,2) x | x8 | x8 | x8 | x8 |: A,6 F,2 C,2 | (A,6 F,2) C,2 | x8 | %11
 (B,4- G,2) C,2 | A,6 F,2 C,2 | (A,6 F,2) C,2 | x8 | x8 :| x8 |: x8 | x6 F,3/2 x/ | x8 | x8 | x8 | %22
 x8 | x2 G,2 G,2 G,2 | x2 C>C C2 C2 | x8 | x8 | B,3 B, x4 | x8 | x8 | x8 |1 x8 | x8 :|2 x8 || x8 |] %35

